X:1
T:Title
%%score { ( 1 3 ) | ( 2 4 ) }
L:1/8
M:6/8
K:G
V:1 treble nm="Grand Piano"
V:3 treble 
V:2 bass 
V:4 bass 
V:1
 z3 z2[Q:1/4=100] D | B2 G AGE | [B,D]2 [CE] [B,D]2 [DG] | A2 A ABc |[M:5/8] B-B- B3 |[M:1/8] D | %6
[M:3/4] B2 GA GE | [B,D]2 [CE] [B,D]2 [DG] | AB [Ec] [GB]2 [CFA] | [B,G]6 | z2 z A3 | %11
 [DB]2 [DB]B, CD | [G,EG]2 [G,DG]G A[^CB] | A4- AD | B2 GA GE | [B,D]2 [CE] [B,D]2 [DG] | %16
 AB [Ec] [GB]2 [CFA] |[M:5/8] [B,G]-[B,G]- [B,G]3 |] %18
V:2
 z3 z2 [G,B,] | [G,D]2 [G,B,D] [C,C]2 [C,G,C] | [G,,G,]2 [G,,G,] [G,,G,]2 [B,,G,] | %3
 [D,F,D]2 [D,F,D] [D,D]-[D,G,D][D,A,D] |[M:5/8] [G,D]-[G,D]- [G,D]3 |[M:1/8] [G,B,] | %6
[M:3/4] [G,D]2 [G,B,D] [C,C]2 [C,G,C] | [G,,G,]2 [G,,G,] [G,,G,]2 [B,,G,] | %8
 [C,G,][B,,^G,] [A,,A,] [D,=G,]2 D, | G,,6 | z2 z D3 | G,2 G,G,, A,,B,, | %12
 C,2 B,, [A,,E,]2 [A,,G,] | [D,F,D]4- [D,F,D][G,B,] | [G,D]2 [G,B,D] [C,C]2 [C,G,C] | %15
 [G,,G,]2 [G,,G,] [G,,G,]2 [B,,G,] | [C,G,][B,,^G,] [A,,A,] [D,=G,]2 D, |[M:5/8] G,,-G,,- G,,3 |] %18
V:3
 x6 | z3 .E3 | x6 | x6 |[M:5/8] x5 |[M:1/8] x |[M:3/4] z2 z .E3 | x6 | E2 z2 z2 | x6 | %10
 c2 .c2 G,A, | z2 z [G,G]3 | z2 z .^C3 | x6 | z2 z .E3 | x6 | E2 z2 z2 |[M:5/8] x5 |] %18
V:4
 x6 | x6 | x6 | z3 .F,3 |[M:5/8] x5 |[M:1/8] x |[M:3/4] x6 | x6 | x6 | x6 | %10
 [D,F,D]2 [D,F,D][D,F,] E,F, | x6 | x6 | x6 | x6 | x6 | x6 |[M:5/8] x5 |] %18

